!!!COM: Vivaldi, Antonio Lucio
!!!CDT: 1678/03/04-1741/08/28
!!!OPR: 12 sonatas for two violins and basso continuo
!!!OTL: Sonata in B minor, op. @{OPS}, no. @{ONM} (@{SCT})
!!!OPS: 1
!!!ONM: 11
!!!OMV: 3. Giga
!!!SCT: RV 79
!!!SCA: Antonio Vivaldi: Thematisch-systematisches Verzeichnis seiner Werke (Ryom-Verzeichnis)
!!!OMD: Allegro
!!!key: b
**kern	**dynam	**fb	**kern	**dynam	**kern	**dynam
*part3	*	*	*part2	*	*part1	*
*staff3	*	*	*staff2	*	*staff1	*
*ICstr&ICklav	*	*	*ICstr	*	*ICstr	*
*Icello&Icemba	*	*	*Ivioln	*	*Ivioln	*
*	*	*	*I#2	*	*I#1	*
*I"Violoncello\nContinuo	*	*	*I"Violin 2	*	*I"Violin 1	*
*I'bc	*	*	*I'v2	*	*I'v1	*
*>[A,A,B,B]	*>[A,A,B,B]	*>[A,A,B,B]	*>[A,A,B,B]	*>[A,A,B,B]	*>[A,A,B,B]	*>[A,A,B,B]
*>norep[A,B]	*>norep[A,B]	*>norep[A,B]	*>norep[A,B]	*>norep[A,B]	*>norep[A,B]	*>norep[A,B]
*>A	*>A	*>A	*>A	*>A	*>A	*>A
*clefF4	*	*	*clefG2	*	*clefG2	*
*k[f#c#]	*	*	*k[f#c#]	*	*k[f#c#]	*
*b:	*	*	*b:	*	*b:	*
*M12/8	*	*	*M12/8	*	*M12/8	*
*MM240	*	*	*MM240	*	*MM240	*
=1	=1	=1	=1	=1	=1	=1
1.r	.	.	1.r	.	8b/L	.
.	.	.	.	.	8f#y/	.
.	.	.	.	.	8b/J	.
.	.	.	.	.	8b\L	.
.	.	.	.	.	8cc#y\	.
.	.	.	.	.	8dd\J	.
.	.	.	.	.	8b/L	.
.	.	.	.	.	8f#y/	.
.	.	.	.	.	8b/J	.
.	.	.	.	.	8b/L	.
.	.	.	.	.	8f#y/	.
.	.	.	.	.	8b/J	.
=2	=2	=2	=2	=2	=2	=2
1.r	.	.	1.r	.	8cc#y/L	.
.	.	.	.	.	8f#y/	.
.	.	.	.	.	8cc#y/J	.
.	.	.	.	.	8cc#y\L	.
.	.	.	.	.	8dd\	.
.	.	.	.	.	8ee\J	.
.	.	.	.	.	8cc#y/L	.
.	.	.	.	.	8f#y/	.
.	.	.	.	.	8cc#y/J	.
.	.	.	.	.	8cc#y/L	.
.	.	.	.	.	8f#y/	.
.	.	.	.	.	8cc#y/J	.
=3	=3	=3	=3	=3	=3	=3
1.r	.	.	1.r	.	8dd\L	.
.	.	.	.	.	8cc#y\	.
.	.	.	.	.	8b\J	.
.	.	.	.	.	8bb\L	.
.	.	.	.	.	8ff#y\	.
.	.	.	.	.	8ee\J	.
.	.	.	.	.	8dd\L	.
.	.	.	.	.	8cc#y\	.
.	.	.	.	.	8b\J	.
.	.	.	.	.	8bb\L	p
.	.	.	.	.	8ff#y\	.
.	.	.	.	.	8ee\J	.
=4	=4	=4	=4	=4	=4	=4
2.r	.	.	2.r	.	8dd\L	.
.	.	.	.	.	8cc#y\	.
.	.	.	.	.	8b\J	.
.	.	.	.	.	8bb\L	.
.	.	.	.	.	8ff#y\	.
.	.	.	.	.	8ee\J	.
4r	.	.	4r	.	8dd\L	.
.	.	.	.	.	8cc#y\	.
8r	.	.	8r	.	8b\J	.
4.B\	.	.	[4.dd\	.	8r	.
.	.	.	.	.	8r	.
.	.	.	.	.	8bb\	f
!!LO:LB:g=original
=5	=5	=5	=5	=5	=5	=5
4.e\	.	7	4.dd\]	.	8gg\L	.
.	.	.	.	.	8ee\	.
.	.	.	.	.	8cc#y\J	.
4.A\	.	7	2.cc#y\	.	8ee\L	.
.	.	.	.	.	8aa\	.
.	.	.	.	.	8gg\J	.
4.d\	.	7	.	.	8ff#y\L	.
.	.	.	.	.	8dd\	.
.	.	.	.	.	8b\J	.
4.G\	.	7	[4.b\	.	8dd\L	.
.	.	.	.	.	8gg\	.
.	.	.	.	.	8ff#y\J	.
=6	=6	=6	=6	=6	=6	=6
4.C#y/	.	7	4.b\]	.	8ee\L	.
.	.	.	.	.	8cc#y\	.
.	.	.	.	.	8a#X\J	.
4.F#y\	.	7 #	4.a#X/	.	8ee\L	.
.	.	.	.	.	8ff#y\	.
.	.	.	.	.	8ee\J	.
4.BB/	.	.	4.b\	.	8dd\L	.
.	.	.	.	.	8b\	.
.	.	.	.	.	8ff#y\J	.
4r	.	.	4r	.	(8bb\L	.
.	.	.	.	.	8ff#y\)	.
8r	.	.	8r	.	8ff#y\J	.
=7	=7	=7	=7	=7	=7	=7
4.BB/	.	.	4.dd\	.	(8gg\L	.
.	.	.	.	.	8ff#y\)	.
.	.	.	.	.	8ff#y\J	.
4r	.	.	4r	.	(8bb\L	.
.	.	.	.	.	8ff#y\)	.
8r	.	.	8r	.	8ff#y\J	.
4.BB/	.	.	4.dd\	.	(8gg\L	.
.	.	.	.	.	8ff#y\)	.
.	.	.	.	.	8ff#y\J	.
4r	.	.	4r	.	(8bb\L	.
.	.	.	.	.	8ff#y\)	.
8r	.	.	8r	.	8ff#y\J	.
=8	=8	=8	=8	=8	=8	=8
4BB/	.	.	8dd\L	.	8ff#y\L	.
.	.	.	8cc#y\	.	8ee\	.
8E\	.	7	8b\J	.	8dd\J	.
4F#y\	.	#	4f#y/	.	4.cc#y\t	.
8FF#y/	.	.	8a#X/	.	.	.
4.BB/	.	.	4.b\	.	8b\L	.
.	.	.	.	.	8ff#y\	.
.	.	.	.	.	8ee\J	.
4.B\	.	.	4r	.	8dd\L	.
.	.	.	.	.	8cc#y\	.
.	.	.	8r	.	8b\J	.
=9	=9	=9	=9	=9	=9	=9
2.A#X\	.	6	2.cc#y\	.	(8f#y/L	.
.	.	.	.	.	8a#X/	.
.	.	.	.	.	8ee/J)	.
.	.	5	.	.	(8gg\L	.
.	.	.	.	.	8ff#y\	.
.	.	.	.	.	8ee\J)	.
2.B\	.	.	2.f#y/	.	8dd\L	.
.	.	.	.	.	8cc#y\	.
.	.	.	.	.	8b\J	.
.	.	.	.	.	8dd\L	p
.	.	.	.	.	8cc#y\	.
.	.	.	.	.	8b\J	.
!!LO:LB:g=original
=10	=10	=10	=10	=10	=10	=10
2.A#X\	p	6	2.cc#y\	p	(8f#y/L	.
.	.	.	.	.	8a#X/	.
.	.	.	.	.	8ee/J)	.
.	.	5	.	.	(8gg\L	.
.	.	.	.	.	8ff#y\	.
.	.	.	.	.	8ee\J)	.
2.B\	.	.	2.f#y/	.	8dd\L	.
.	.	.	.	.	8cc#y\	.
.	.	.	.	.	8b\J	.
.	.	.	.	.	8ff#y\L	f
.	.	.	.	.	8bb\	.
.	.	.	.	.	8ff#y\J	.
=11	=11	=11	=11	=11	=11	=11
2.BB/	f	6	2.dd\	f	(8gg\L	.
.	.	.	.	.	8ff#y\)	.
.	.	.	.	.	8ff#y\J	.
.	.	.	.	.	(8gg\L	.
.	.	.	.	.	8aa\)	.
.	.	.	.	.	8bb\J	.
4.C#y/	.	#	4.g#X/	.	(8ee#X\L	.
.	.	.	.	.	8dd#X\)	.
.	.	.	.	.	8cc#y\J	.
4r	.	.	4r	.	(8ff#y\L	.
.	.	.	.	.	8cc#y\)	.
8r	.	.	8r	.	8cc#y\J	.
=12	=12	=12	=12	=12	=12	=12
4.F#y\	.	n	4.a/	.	(8dd\L	.
.	.	.	.	.	8cc#y\)	.
.	.	.	.	.	8cc#y\J	.
4r	.	.	4r	.	(8ff#y\L	.
.	.	.	.	.	8cc#y\)	.
8r	.	.	8r	.	8cc#y\J	.
4.F#y\	.	.	4.a/	.	(8dd\L	.
.	.	.	.	.	8cc#y\)	.
.	.	.	.	.	8cc#y\J	.
4r	.	.	4r	.	(8ff#y\L	.
.	.	.	.	.	8cc#y\)	.
8r	.	.	8r	.	8cc#y\J	.
=13	=13	=13	=13	=13	=13	=13
4F#y\	.	.	8a/L	.	8cc#y\L	.
.	.	.	8g#X/	.	8b\	.
8B\	.	7	8f#y/J	.	8a\J	.
4c#y\	.	#	4c#y/	.	4.g#X/t	.
8C#y/	.	.	8e#X/	.	.	.
2.FF#y/	.	.	2.f#y/	.	2.f#y/	.
=14:|!|:	=14:|!|:	=14:|!|:	=14:|!|:	=14:|!|:	=14:|!|:	=14:|!|:
*>B	*>B	*>B	*>B	*>B	*>B	*>B
1.r	.	.	1.r	.	8ff#y\L	.
.	.	.	.	.	8cc#y\	.
.	.	.	.	.	8ff#y\J	.
.	.	.	.	.	8ff#y\L	.
.	.	.	.	.	8gg#X\	.
.	.	.	.	.	8aa\J	.
.	.	.	.	.	8ff#y\L	.
.	.	.	.	.	8cc#y\	.
.	.	.	.	.	8ff#y\J	.
.	.	.	.	.	8ff#y\L	.
.	.	.	.	.	8cc#y\	.
.	.	.	.	.	8ff#y\J	.
!!LO:PB:g=original
=15	=15	=15	=15	=15	=15	=15
1.r	.	.	1.r	.	8gg#X\L	.
.	.	.	.	.	8cc#y\	.
.	.	.	.	.	8gg#X\J	.
.	.	.	.	.	8gg#y\L	.
.	.	.	.	.	8aa\	.
.	.	.	.	.	8bb\J	.
.	.	.	.	.	8gg#X\L	.
.	.	.	.	.	8cc#y\	.
.	.	.	.	.	8gg#X\J	.
.	.	.	.	.	8gg#y\L	.
.	.	.	.	.	8cc#y\	.
.	.	.	.	.	8gg#X\J	.
=16	=16	=16	=16	=16	=16	=16
4r	.	.	4r	.	8aa\L	.
.	.	.	.	.	8gg#X\	.
8r	.	.	8r	.	8ff#y\J	.
4.F#y\	.	.	2.ff#y\	.	8r	.
.	.	.	.	.	8r	.
.	.	.	.	.	8aa\	.
4.B\	.	7 #	.	.	8aa\L	.
.	.	.	.	.	8ff#y\	.
.	.	.	.	.	8dd#X\J	.
4.BB/	.	.	4.dd#X\	.	8b\L	.
.	.	.	.	.	8aa\	.
.	.	.	.	.	8bb\J	.
=17	=17	=17	=17	=17	=17	=17
2.E\	.	.	4.b\	.	8ggn\L	.
.	.	.	.	.	8ff#y\	.
.	.	.	.	.	8ee\J	.
.	.	.	2.ee\	.	8r	.
.	.	.	.	.	8r	.
.	.	.	.	.	8gg\	.
4.A\	.	7	.	.	8gg\L	.
.	.	.	.	.	8ee\	.
.	.	.	.	.	8cc#y\J	.
4.AA/	.	.	4.cc#y\	.	8a\L	.
.	.	.	.	.	8gg\	.
.	.	.	.	.	8aa\J	.
=18	=18	=18	=18	=18	=18	=18
4.D\	.	.	4.a/	.	8ff#y\L	.
.	.	.	.	.	8ee\	.
.	.	.	.	.	8dd\J	.
4.F#y\	.	6	2.dd\	.	8r	.
.	.	.	.	.	8r	.
.	.	.	.	.	8a/	.
2.G\	.	5 3	.	.	8b\L	.
.	.	.	.	.	8gg\	.
.	.	.	.	.	8b\J	.
.	.	6 4	4.ee\	.	8cc#y\L	.
.	.	.	.	.	8aa\	.
.	.	.	.	.	8cc#y\J	.
=19	=19	=19	=19	=19	=19	=19
4.F#y\	.	6	4.a/	.	8dd\L	.
.	.	.	.	.	8a\	.
.	.	.	.	.	8dd\J	.
8r	.	.	8r	.	8f#y/L	.
8r	.	.	8r	.	8dd/	.
8D\	.	.	8f#y/	.	8f#y/J	.
4.GG/	.	6 5	[4.e/	.	8g/L	.
.	.	.	.	.	8cc#y/	.
.	.	.	.	.	8dd/J	.
4.AA/	.	5 4	4e/]	.	8e/L	.
.	.	.	.	.	8dd/	.
.	.	X 3	8a/	.	8cc#y/J	.
!!LO:LB:g=original
=20	=20	=20	=20	=20	=20	=20
4.D\	.	.	4.f#y/	.	8dd/L	.
.	.	.	.	.	8d/	.
.	.	.	.	.	8e/J	.
4r	.	.	4r	.	8f#y/L	.
.	.	.	.	.	8g/	.
8r	.	.	8r	.	8a/J	.
2.D#X\	.	6	2.f#y/	.	(8b\L	.
.	.	.	.	.	8ccn\	.
.	.	.	.	.	8b\J)	.
.	.	5	.	.	(8ccn\L	.
.	.	.	.	.	8b\	.
.	.	.	.	.	8a\J)	.
=21	=21	=21	=21	=21	=21	=21
2.E\	.	.	2.B/	.	8g/L	.
.	.	.	.	.	8e/	.
.	.	.	.	.	8f#y/J	.
.	.	.	.	.	8g/L	.
.	.	.	.	.	8a/	.
.	.	.	.	.	8b/J	.
2.E#X\	.	6	2.g#X/	.	(8cc#X\L	.
.	.	.	.	.	8dd\	.
.	.	.	.	.	8cc#y\J)	.
.	.	5	.	.	(8dd\L	.
.	.	.	.	.	8cc#y\	.
.	.	.	.	.	8b\J)	.
=22	=22	=22	=22	=22	=22	=22
4.F#y\	.	#	4.c#y/	.	8a#X/L	.
.	.	.	.	.	8g#X/	.
.	.	.	.	.	8f#y/J	.
4.AA#X/	.	6	4.cc#y\	.	8r	.
.	.	.	.	.	8r	.
.	.	.	.	.	8ff#y\	.
4.BB/	.	n	4.dd\	.	(8ggn\L	.
.	.	.	.	.	8ff#y\)	.
.	.	.	.	.	8ff#y\J	.
4r	.	.	4r	.	(8bb\L	.
.	.	.	.	.	8ff#y\)	.
8r	.	.	8r	.	8ff#y\J	.
=23	=23	=23	=23	=23	=23	=23
4.BB/	.	.	4.dd\	.	(8gg\L	.
.	.	.	.	.	8ff#y\)	.
.	.	.	.	.	8ff#y\J	.
4r	.	.	4r	.	(8bb\L	.
.	.	.	.	.	8ff#y\)	.
8r	.	.	8r	.	8ff#y\J	.
4.BB/	.	.	4.dd\	.	(8gg\L	.
.	.	.	.	.	8ff#y\)	.
.	.	.	.	.	8ff#y\J	.
4r	.	.	4r	.	(8bb\L	.
.	.	.	.	.	8ff#y\)	.
8r	.	.	8r	.	8ff#y\J	.
=24	=24	=24	=24	=24	=24	=24
2.E\	.	.	4.b\	.	8gg\L	.
.	.	.	.	.	8aa\	.
.	.	.	.	.	8gg\J	.
.	.	.	[4.ee\	.	8ff#y\L	.
.	.	.	.	.	8gg\	.
.	.	.	.	.	8ee\J	.
4.F#y\	.	7 #	4.ee\]	.	8aa#X\L	.
.	.	.	.	.	8ff#y\	.
.	.	.	.	.	8aa#X\J	.
4.BB/	.	.	[4.dd\	.	8bb\L	.
.	.	.	.	.	8ff#y\	.
.	.	.	.	.	8bb\J	.
!!LO:LB:g=original
=25	=25	=25	=25	=25	=25	=25
4.E\	.	7 #	4.dd\]	.	(8gg#X\L	.
.	.	.	.	.	8aa#X\)	.
.	.	.	.	.	8bb\J	.
4.F#y\	.	5 4	4.cc#y\	.	(8cc#y\L	.
.	.	.	.	.	8bb\)	.
.	.	X #	.	.	8aa#X\J	.
4.BB/	.	.	4.b\	.	(8b\L	.
.	.	.	.	.	8dd\)	.
.	.	.	.	.	8cc#y\J	.
4r	.	.	4r	.	(8b\L	.
.	.	.	.	.	8cc#y\)	.
8r	.	.	8r	.	8dd\J	.
=26	=26	=26	=26	=26	=26	=26
4.d\	.	6	4.b\	.	(8d/L	.
.	.	.	.	.	8dd/)	.
.	.	.	.	.	8cc#y/J	.
4r	.	.	4r	.	(8b\L	.
.	.	.	.	.	8cc#y\)	.
8r	.	.	8r	.	8dd\J	.
4.e\	.	7 5	4.b\	.	(8e/L	.
.	.	.	.	.	8dd/)	.
.	.	.	.	.	8cc#y/J	.
4r	.	.	4r	.	(8b\L	.
.	.	.	.	.	8cc#y\)	.
8r	.	.	8r	.	8dd\J	.
=27	=27	=27	=27	=27	=27	=27
4.f#y\	.	5 4	4.b\	.	(8f#y/L	.
.	.	.	.	.	8dd/)	.
.	.	.	.	.	8cc#y/J	.
4r	.	.	4r	.	(8b\L	.
.	.	.	.	.	8cc#y\)	.
8r	.	.	8r	.	8dd\J	.
4.g\	.	3	4.b\	.	(8g\L	.
.	.	.	.	.	8dd\)	.
.	.	.	.	.	8cc#y\J	.
4r	.	.	4r	.	(8b\L	.
.	.	.	.	.	8cc#y\)	.
8r	.	.	8r	.	8dd\J	.
=28	=28	=28	=28	=28	=28	=28
4.d\	.	6	4.b\	.	(8d/L	.
.	.	.	.	.	8dd/)	.
.	.	.	.	.	8cc#y/J	.
4r	.	.	4r	.	(8b\L	.
.	.	.	.	.	8cc#y\)	.
8r	.	.	8r	.	8dd\J	.
4.e\	.	7 5	4.b\	.	(8e/L	.
.	.	.	.	.	8dd/)	.
.	.	.	.	.	8cc#y/J	.
4r	.	.	4r	.	(8b\L	.
.	.	.	.	.	8cc#y\)	.
8r	.	.	8r	.	8dd\J	.
=29	=29	=29	=29	=29	=29	=29
4.f#y\	.	6 4	4.dd\	.	(8f#y/L	.
.	.	.	.	.	8b/)	.
.	.	.	.	.	8cc#y/J	.
4.F#y\	.	5 #	4.cc#y\	.	4f#y/	.
.	.	.	.	.	8a#X/	.
2.B\;	.	.	2.b\;	.	2.B/;	.
=:|!	=:|!	=:|!	=:|!	=:|!	=:|!	=:|!
*-	*-	*-	*-	*-	*-	*-
!!!SMS: RV 79 / Estienne Roger (No. 363), Amsterdam [facs.]
!!!ENC: Fran Bennion   rev. 05/19/21 E Correia
!!!END: 2004/11/01
!!!ONB: Converted from MuseData with musedata2hum on Sat May 11 12:01:57 2024
!!!YEM: (C) 2004, 2019 Center for Computer Assisted Research in the Humanities
!!!system-decoration: [(s1,s2,s3)]
!!!URL-info: https://wiki.ccarh.org/wiki/MuseData:_Antonio_Vivaldi#Op._1:_Suonate_da_camera_a_tr.C3.A8.2C_due_violini_e_violone_o_cembalo Information about Vivaldi Op. 1 on the CCARH wiki
!!!URL-pdf: https://pdf.musedata.org/vivaldi-op01-no11.pdf#page=5 MuseData edition
!!!URL-pdf: https://s9.imslp.org/files/imglnks/usimg/1/18/IMSLP280399-PMLP10351-Vivaldi_Sonatas_Op_1_-_Violino_Primo.pdf#page=19 Violino primo part, Amsterdam: Estienne Roger, n.d.(ca.1723). Plate 363.
!!!URL-pdf: https://s9.imslp.org/files/imglnks/usimg/d/d5/IMSLP280400-PMLP10351-Vivaldi_Sonatas_Op_1_-_Violino_Secondo.pdf#page=15 Violino secondo part, Amsterdam: Estienne Roger, n.d.(ca.1723). Plate 363.
!!!URL-pdf: https://s9.imslp.org/files/imglnks/usimg/8/89/IMSLP280401-PMLP10351-Vivaldi_Sonatas_Op_1_-_Organo_e_Violoncello.pdf#page=16 Organo e Violoncello parts, Amsterdam: Estienne Roger, n.d.(ca.1723). Plate 363.
!!!URL-youtube: https://www.youtube.com/watch?v=P5HHPe_W6Uo&t=4515s L'Arte dell'Arco
!!!title: @{OTL}, mov. @{OMV}
!!!filter-vcross: vcross
!!!EEV: 2024/05/11
!!!source-file: https://bitbucket.org/musedata/vivaldi/src/master/roger/op1/no11/stage2/03/01
!!!source-file: https://bitbucket.org/musedata/vivaldi/src/master/roger/op1/no11/stage2/03/02
!!!source-file: https://bitbucket.org/musedata/vivaldi/src/master/roger/op1/no11/stage2/03/03
!!!source-file: https://bitbucket.org/musedata/vivaldi/src/master/roger/op1/no11/stage2/03/04
